files/resources/svgs/general/o-server-stack.svg

<svg width="24" height="24" viewBox="0 0 24 24" fill="none" xmlns="http://www.w3.org/2000/svg">
<path d="M5.25 14.25H18.75M5.25 14.25C3.59315 14.25 2.25 12.9069 2.25 11.25M5.25 14.25C3.59315 14.25 2.25 15.5931 2.25 17.25C2.25 18.9069 3.59315 20.25 5.25 20.25H18.75C20.4069 20.25 21.75 18.9069 21.75 17.25C21.75 15.5931 20.4069 14.25 18.75 14.25M2.25 11.25C2.25 9.59315 3.59315 8.25 5.25 8.25H18.75C20.4069 8.25 21.75 9.59315 21.75 11.25M2.25 11.25C2.25 10.2763 2.5658 9.32893 3.15 8.55L5.7375 5.1C6.37488 4.25016 7.37519 3.75 8.4375 3.75H15.5625C16.6248 3.75 17.6251 4.25016 18.2625 5.1L20.85 8.55C21.4342 9.32893 21.75 10.2763 21.75 11.25M21.75 11.25C21.75 12.9069 20.4069 14.25 18.75 14.25M18.75 17.25H18.7575V17.2575H18.75V17.25ZM18.75 11.25H18.7575V11.2575H18.75V11.25ZM15.75 17.25H15.7575V17.2575H15.75V17.25ZM15.75 11.25H15.7575V11.2575H15.75V11.25Z" stroke="#0F172A" stroke-width="1.5" stroke-linecap="round" stroke-linejoin="round"/>
</svg>

<svg xmlns="http://www.w3.org/2000/svg" fill="none" viewBox="0 0 24 24" stroke-width="1.5" stroke="currentColor" aria-hidden="true">
  <path stroke-linecap="round" stroke-linejoin="round" d="M5.25 14.25h13.5m-13.5 0a3 3 0 01-3-3m3 3a3 3 0 100 6h13.5a3 3 0 100-6m-16.5-3a3 3 0 013-3h13.5a3 3 0 013 3m-19.5 0a4.5 4.5 0 01.9-2.7L5.737 5.1a3.375 3.375 0 012.7-1.35h7.126c1.062 0 2.062.5 2.7 1.35l2.587 3.45a4.5 4.5 0 01.9 2.7m0 0a3 3 0 01-3 3m0 3h.008v.008h-.008v-.008zm0-6h.008v.008h-.008v-.008zm-3 6h.008v.008h-.008v-.008zm0-6h.008v.008h-.008v-.008z"/>
</svg>
